data/icons/hicolor/scalable/apps/ar.xjuan.Cambalache.svg

<?xml version="1.0" encoding="UTF-8"?>
<svg width="128px" height="128px" version="1.1" viewBox="0 0 128 128" xmlns="http://www.w3.org/2000/svg">
 <linearGradient id="a" x1="8" x2="120" y1="117" y2="117" gradientUnits="userSpaceOnUse">
  <stop stop-color="#77767b" offset="0"/>
  <stop stop-color="#c0bfbc" offset=".035714"/>
  <stop stop-color="#9a9996" offset=".071365"/>
  <stop stop-color="#9a9996" offset=".92857"/>
  <stop stop-color="#c0bfbc" offset=".96429"/>
  <stop stop-color="#77767b" offset="1"/>
 </linearGradient>
 <path d="m16 41h96c4.418 0 8 3.582 8 8v60c0 4.418-3.582 8-8 8h-96c-4.418 0-8-3.582-8-8v-60c0-4.418 3.582-8 8-8z" fill="url(#a)"/>
 <path d="m16.5 28.5h95c4.418 0 8 3.582 8 8v68c0 4.418-3.582 8-8 8h-95c-4.418 0-8-3.582-8-8v-68c0-4.418 3.582-8 8-8z" fill="#f6f5f4" stroke="#5e5c64"/>
 <path d="m44.664 48.477c2.6133 0.80859 4.75 2.5664 6.0391 4.9609 1.2852 2.3984 1.5234 5.168 0.74609 7.7656-1.3242 4.2539-5.8008 6.6836-10.109 5.5039-0.066406-0.035156-0.16797-0.035156-0.23828-0.070312-0.74609-0.26953-1.1172-1.043-0.87891-1.7891 0.20312-0.60547 0.87891-0.94531 1.5234-0.74219 0.54297 0.17188 0.81641 0.77734 0.64453 1.2852-0.10156 0.33594-0.40625 0.57422-0.71094 0.60547 3.8672 0.98047 7.8672-1.2148 9.0547-5.0273 0.74609-2.3984 0.50781-4.9648-0.67578-7.1914-1.1875-2.2266-3.1914-3.8828-5.5977-4.625-3.0547-0.94531-6.3086-0.64062-9.125 0.84375-2.8125 1.4844-4.918 3.9844-5.8672 7.0234-2.4062 7.7305 1.9688 15.965 9.9375 18.734 3.4922 1.2148 7.1562 1.0781 10.957 0.26953 0.13281-0.035157 0.26953-0.035157 0.37109-0.066407l0.17188-0.035156c2.2031-0.64062 3.7305-2.125 4.2031-3.8477 0 0 3.7656 1.3516 8.2422-0.37109 5.8672-2.2617 12.074-4.625 18.723-5.3672h-0.54297c-1.5273-0.26953-2.9844-0.74219-4.3086-1.5859-0.98047-0.60938-1.9297-1.25-2.7461-2.0625-0.84766-0.77344-1.5938-1.6523-2.3398-2.5625-0.035157-0.035156-0.066407-0.070312-0.066407-0.13672-0.17187-0.30469 0-0.70703 0.30469-0.84375 0.30469-0.16797 0.71094 0 0.84766 0.30469 0.47266 0.97656 1.0156 1.9219 1.6953 2.8008 0.67969 0.84375 1.457 1.6562 2.4414 2.2266 1.7969 1.082 3.9023 1.5547 6.0039 1.7227-2.4414-0.97656-4.5117-2.8672-5.5625-5.5-0.78125-1.9609-0.74609-4.1211 0.10156-6.043 0.84766-1.9258 2.4102-3.4453 4.375-4.2227 1.5938-0.64062 3.3594-0.60547 4.9531 0.10156 1.5938 0.67578 2.7812 1.9258 3.4258 3.5469l0.10156 0.30469c0.37109 0.63281 0.16797 1.4844-0.47656 1.8867-0.54297 0.33984-1.2891 0.17187-1.6602-0.40234-0.30469-0.47266-0.13672-1.1133 0.33984-1.418 0.37109-0.23828 0.8125-0.16797 1.0859 0.10156-0.035156-0.066407-0.035156-0.16797-0.070313-0.23828-0.54297-1.418-1.6289-2.5312-3.0195-3.1367-1.3906-0.60938-2.9492-0.64453-4.375-0.070313-1.7969 0.71094-3.2227 2.0586-4 3.8164-0.78125 1.7539-0.81641 3.7109-0.10156 5.5 1.2539 3.1758 4.1367 5.2695 7.3594 5.6719 0.64453 0 1.3242 0 1.9688 0.035156h0.20312v0.035157c2.1367 0.10156 4.3398 0.40234 6.5781 0.97656-0.10156-0.03125-0.20312-0.066406-0.30469-0.10156 0.40625 0.13672 0.78125 0.23828 1.1523 0.37109 0.066406 0.035157 0.17188 0.035157 0.23828 0.070313 0.066407 0.03125 0.13672 0.066406 0.20312 0.066406 0.20312 0.066407 0.40625 0.13281 0.57812 0.20312 0.03125 0.03125 0.066407 0.03125 0.10156 0.066406 10.379 3.9492 15.906 15.426 12.379 25.992-1.8672 5.5703-5.7188 11.602-10.125 14.434l-2.4375-0.003906c1-0.94531 5.3359-5.7852 5.9805-7.8477 0.33984-1.043 0.375-2.1914 0.30859-3.2734-0.070312-1.0781-0.30859-2.1602-0.64453-3.207-0.10156-0.33594 0.10156-0.70703 0.44141-0.80859 0.33594-0.10156 0.71094 0.10156 0.8125 0.4375 0 0.035156 0.035156 0.10156 0.035156 0.13672 0.066406 1.1484 0.10156 2.3281 0.03125 3.4766-0.066406 1.1484-0.33984 2.2617-0.64453 3.375-0.40625 1.4844-1.1875 2.8359-2.1367 4.0508l-0.94922 0.84375c3.9688-2.7344 6.9531-6.7188 8.6484-11.848 3.5273-10.5-2.2383-21.91-12.82-25.387-0.8125-0.26953-1.6289-0.47266-2.4414-0.60938-4.1367-0.4375-6.3438 0.67578-7.4297 3.0391 0 0-6.1367 0.77734-8.918 4.4219-0.60938 1.0156-1.1523 2.1289-1.5273 3.3086-1.0859 3.2422-0.8125 6.6836 0.71094 9.7227 1.5273 3.0391 4.1719 5.3008 7.4297 6.3789 2.5781 0.84375 5.3242 0.64453 7.7656-0.53906 2.4453-1.2148 4.2422-3.2734 5.0898-5.8398 1.3555-4.0859-0.78125-8.4727-4.75-9.9922 0.23828 0.23828 0.33984 0.57422 0.20312 0.94531-0.16797 0.53906-0.74609 0.84375-1.2891 0.67578-0.64453-0.20312-0.98047-0.87891-0.8125-1.4844 0.23828-0.74219 0.98438-1.1484 1.7305-0.94531h0.03125c2.207 0.74219 4.0391 2.293 5.0547 4.3516 1.0508 2.0938 1.2227 4.457 0.47656 6.6875-0.91797 2.7344-2.8516 4.9609-5.4609 6.2773-2.6133 1.2812-5.5625 1.5195-8.3086 0.60938-3.4258-1.1484-6.207-3.5117-7.8359-6.7539-1.6289-3.207-1.8984-6.8516-0.74609-10.262 1.5273-4.5898 4.918-8.0664 9.0195-9.9258l0.035156-0.03125h0.035156c1.2188-0.54297 2.5078-0.94531 3.832-1.1836-0.23828 0-0.47656-0.03125-0.67969-0.03125-0.94922 0.03125-1.9648 0.13281-3.0508 0.23438 0.98438-0.13672 1.9648-0.23438 3.0195-0.23438h-0.035156c-8.4805-0.070313-16.348 2.9688-23.605 5.8047-0.67969 0.26953-1.3906 0.53906-2.0703 0.80859h-0.035156c-7.3242 2.8047-14.277 5.1328-20.758 3.3789l-1.0156-0.30469c-8.3789-2.9023-12.922-11.512-10.414-19.613 1.6992-5.4023 6.6836-8.8789 10.059-9.0312 3.375-0.15234 4.6289 0.015624 5.918 0.42187z" fill="#002447"/>
 <path d="m94.605 34h18.789c0.88672 0 1.6055 0.71875 1.6055 1.6055v3.9609c0 0.89062-0.71875 1.6094-1.6055 1.6094h-18.789c-0.88672 0-1.6055-0.71875-1.6055-1.6094v-3.9609c0-0.88672 0.71875-1.6055 1.6055-1.6055z" fill="#9a9996"/>
 <path d="m14.605 34h18.789c0.88672 0 1.6055 0.71875 1.6055 1.6055v3.9609c0 0.89062-0.71875 1.6094-1.6055 1.6094h-18.789c-0.88672 0-1.6055-0.71875-1.6055-1.6094v-3.9609c0-0.88672 0.71875-1.6055 1.6055-1.6055z" fill="#9a9996"/>
 <path d="m15.84 28.5h96.324c4.0664 0 7.3359 3.2031 7.3359 7.1836v7.7969l-111 0.019531c0-2.6055 0.003906-5.2109 0.003906-7.8164 0-3.9805 3.2734-7.1836 7.3359-7.1836zm0 0" fill="#deddda" stroke="#5e5c64" stroke-linecap="round" stroke-linejoin="round" stroke-miterlimit="0"/>
 <path d="m95.012 32.5h17.977c0.83594 0 1.5117 0.67578 1.5117 1.5117v3.9766c0 0.83594-0.67578 1.5117-1.5117 1.5117h-17.977c-0.83594 0-1.5117-0.67578-1.5117-1.5117v-3.9766c0-0.83594 0.67578-1.5117 1.5117-1.5117zm0 0" fill="#62a0ea" stroke="#5e5c64" stroke-linecap="round" stroke-linejoin="round" stroke-miterlimit="0"/>
 <path d="m15.105 32.5h17.789c0.88672 0 1.6055 0.71875 1.6055 1.6055v3.7891c0 0.88672-0.71875 1.6055-1.6055 1.6055h-17.789c-0.88672 0-1.6055-0.71875-1.6055-1.6055v-3.7891c0-0.88672 0.71875-1.6055 1.6055-1.6055zm0 0" fill="#deddda" stroke="#5e5c64" stroke-linecap="round" stroke-linejoin="round" stroke-miterlimit="0"/>
 <g fill-rule="evenodd">
  <path d="m15.504 126.93c0.15234 0.64844 0.74219 1.0117 1.3906 0.85937l81.918-19.23c0.64453-0.15234 0.80469-0.70312 0.65625-1.3516z" fill="#c0bfbc"/>
  <path d="m21.535 86.031 5.6797 24.18 32.543-7.6406zm-20.063-21.172 14.422 61.438 81.918-19.23z" fill="#57e389" fill-opacity=".9" stroke="#3d3846" stroke-width=".99897"/>
  <path transform="matrix(1.1703 -.27476 .27476 1.1703 65.301 -197.08)" d="m-98.5 249.5 0.001046 2.9243" fill="#26a269" stroke="#3d3846" stroke-linecap="round" stroke-width=".83105"/>
  <path transform="matrix(1.1703 -.27476 .27476 1.1703 65.301 -197.08)" d="m-95.493 249.5 0.001789 2.9211" fill="#26a269" stroke="#3d3846" stroke-linecap="round" stroke-width=".83105"/>
  <path transform="matrix(1.1703 -.27476 .27476 1.1703 65.301 -197.08)" d="m-92.485 249.5 0.001047 2.9243" fill="#26a269" stroke="#3d3846" stroke-linecap="round" stroke-width=".83105"/>
  <path transform="matrix(1.1703 -.27476 .27476 1.1703 65.301 -197.08)" d="m-89.478 249.5 0.001789 2.9211" fill="#26a269" stroke="#3d3846" stroke-linecap="round" stroke-width=".83105"/>
  <path transform="matrix(1.1703 -.27476 .27476 1.1703 65.301 -197.08)" d="m-86.47 249.5 0.001046 2.9243" fill="#26a269" stroke="#3d3846" stroke-linecap="round" stroke-width=".83105"/>
  <path transform="matrix(1.1703 -.27476 .27476 1.1703 65.301 -197.08)" d="m-83.462 249.5 0.001046 2.9243" fill="#26a269" stroke="#3d3846" stroke-linecap="round" stroke-width=".83105"/>
  <path transform="matrix(1.1703 -.27476 .27476 1.1703 65.301 -197.08)" d="m-80.452 249.5-0.002117 2.9235" fill="#26a269" stroke="#3d3846" stroke-linecap="round" stroke-width=".83105"/>
  <path transform="matrix(1.1703 -.27476 .27476 1.1703 65.301 -197.08)" d="m-77.444 249.5-0.002117 2.9235" fill="#26a269" stroke="#3d3846" stroke-linecap="round" stroke-width=".83105"/>
  <path transform="matrix(1.1703 -.27476 .27476 1.1703 65.301 -197.08)" d="m-74.437 249.5-0.001374 2.9204" fill="#26a269" stroke="#3d3846" stroke-linecap="round" stroke-width=".83105"/>
  <path transform="matrix(1.1703 -.27476 .27476 1.1703 65.301 -197.08)" d="m-71.429 249.5-0.002117 2.9235" fill="#26a269" stroke="#3d3846" stroke-linecap="round" stroke-width=".83105"/>
  <path transform="matrix(1.1703 -.27476 .27476 1.1703 65.301 -197.08)" d="m-68.422 249.5-0.001375 2.9204" fill="#26a269" stroke="#3d3846" stroke-linecap="round" stroke-width=".83105"/>
  <path transform="matrix(1.1703 -.27476 .27476 1.1703 65.301 -197.08)" d="m-65.415 249.5 0.001046 2.9243" fill="#26a269" stroke="#3d3846" stroke-linecap="round" stroke-width=".83105"/>
  <path transform="matrix(1.1703 -.27476 .27476 1.1703 65.301 -197.08)" d="m-59.4 249.5 0.001047 2.9243" fill="#26a269" stroke="#3d3846" stroke-linecap="round" stroke-width=".83105"/>
  <path transform="matrix(1.1703 -.27476 .27476 1.1703 65.301 -197.08)" d="m-53.385 249.5 0.001046 2.9243" fill="#26a269" stroke="#3d3846" stroke-linecap="round" stroke-width=".83105"/>
  <path transform="matrix(1.1703 -.27476 .27476 1.1703 65.301 -197.08)" d="m-62.407 249.5 0.00179 2.9211" fill="#26a269" stroke="#3d3846" stroke-linecap="round" stroke-width=".83105"/>
  <path transform="matrix(1.1703 -.27476 .27476 1.1703 65.301 -197.08)" d="m-56.392 249.5 0.001046 2.9243" fill="#26a269" stroke="#3d3846" stroke-linecap="round" stroke-width=".83105"/>
  <path transform="matrix(1.1703 -.27476 .27476 1.1703 65.301 -197.08)" d="m-50.377 249.5 0.001047 2.9243" fill="#26a269" stroke="#3d3846" stroke-linecap="round" stroke-width=".83105"/>
  <path transform="matrix(1.1703 -.27476 .27476 1.1703 65.301 -197.08)" d="m-47.37 249.5 0.00179 2.9211" fill="#26a269" stroke="#3d3846" stroke-linecap="round" stroke-width=".83105"/>
  <path transform="matrix(1.1703 -.27476 .27476 1.1703 65.301 -197.08)" d="m-44.359 249.5-0.002117 2.9235" fill="#26a269" stroke="#3d3846" stroke-linecap="round" stroke-width=".83105"/>
  <path transform="matrix(1.1703 -.27476 .27476 1.1703 65.301 -197.08)" d="m-41.352 249.5-0.001375 2.9204" fill="#26a269" stroke="#3d3846" stroke-linecap="round" stroke-width=".83105"/>
  <path transform="matrix(1.1703 -.27476 .27476 1.1703 65.301 -197.08)" d="m-38.344 249.5-0.002117 2.9235" fill="#26a269" stroke="#3d3846" stroke-linecap="round" stroke-width=".83105"/>
 </g>
</svg>

<?xml version="1.0" encoding="UTF-8" standalone="no"?>
<svg
   width="128px"
   height="128px"
   version="1.1"
   viewBox="0 0 128 128"
   id="svg36"
   xmlns="http://www.w3.org/2000/svg"
   xmlns:svg="http://www.w3.org/2000/svg">
  <defs
     id="defs36" />
  <linearGradient
     id="a"
     x1="8"
     x2="120"
     y1="117"
     y2="117"
     gradientUnits="userSpaceOnUse">
    <stop
       stop-color="#77767b"
       offset="0"
       id="stop1" />
    <stop
       stop-color="#c0bfbc"
       offset=".035714"
       id="stop2" />
    <stop
       stop-color="#9a9996"
       offset=".071365"
       id="stop3" />
    <stop
       stop-color="#9a9996"
       offset=".92857"
       id="stop4" />
    <stop
       stop-color="#c0bfbc"
       offset=".96429"
       id="stop5" />
    <stop
       stop-color="#77767b"
       offset="1"
       id="stop6" />
  </linearGradient>
  <path
     d="m16 41h96c4.418 0 8 3.582 8 8v60c0 4.418-3.582 8-8 8h-96c-4.418 0-8-3.582-8-8v-60c0-4.418 3.582-8 8-8z"
     fill="url(#a)"
     id="path6" />
  <path
     d="m16.5 28.5h95c4.418 0 8 3.582 8 8v68c0 4.418-3.582 8-8 8h-95c-4.418 0-8-3.582-8-8v-68c0-4.418 3.582-8 8-8z"
     fill="#f6f5f4"
     stroke="#5e5c64"
     id="path7" />
  <path
     d="M 51.45,61.2 C 49.1,68.76 38.99,67.64 40.22,64.85 41.13,62.8 43.63,65.2 41.68,66 45.55,66.98 49.55,64.78 50.73,60.97 54.62,48.49 33.86,42.95 29.47,57.02 27.06,64.75 31.44,72.98 39.41,75.75 43.23,77.12 53.61,77.54 55.11,72.07 55.11,72.07 58.88,73.43 63.35,71.7 69.22,69.44 75.43,67.08 82.07,66.34 79.3,66.27 75.86,64.07 74.48,62.69 73.63,61.91 72.88,61.04 72.14,60.12 71.65,59.51 72.59,58.68 73.22,59.45 75.04,63.2 77.45,65.73 83.36,66.2 80.92,65.22 78.85,63.33 77.8,60.7 77.02,58.74 77.06,56.58 77.9,54.66 78.75,52.73 80.31,51.21 82.28,50.43 83.87,49.79 85.64,49.83 87.23,50.54 90.09,51.75 91.89,55.27 90.28,56.27 89.74,56.61 88.99,56.45 88.62,55.87 88.02,54.93 89.27,53.79 90.05,54.55 89.54,52.96 88.39,51.94 86.96,51.18 85.57,50.57 84.01,50.54 82.58,51.11 80.79,51.82 79.36,53.17 78.58,54.93 77.8,56.68 77.77,58.64 78.48,60.43 79.73,63.6 82.62,65.7 85.84,66.1 115.25,65.94 115.05,97.87 98.81,108.25 L 96.38,108.24 C 102.9,101.5 103.36,99.42 102.02,93.91 101.96,92.89 103.14,92.84 103.31,93.68 103.59,98.5 102.91,102.49 99.61,105.43 113.52,95.84 112.31,73.74 95.44,68.19 94.63,67.92 93.81,67.72 93,67.58 88.86,67.14 86.65,68.26 85.57,70.62 80.68,71.25 76.74,73.72 75.12,78.35 74.04,81.59 74.31,85.03 75.83,88.07 77.36,91.11 80,93.37 83.26,94.45 85.84,95.3 88.59,95.1 91.03,93.91 93.47,92.7 95.27,90.64 96.12,88.07 97.47,83.99 95.34,79.6 91.37,78.08 92.06,78.78 91.27,80.01 90.28,79.7 89.64,79.5 89.3,78.82 89.47,78.22 90.47,75.11 99.34,80.6 96.76,88.31 95.84,91.05 93.91,93.27 91.3,94.59 88.69,95.87 85.74,96.11 82.99,95.2 79.57,94.05 76.79,91.69 75.16,88.45 73.53,85.24 73.26,81.59 74.41,78.18 76.42,72.09 82.02,68 87.33,67.04 71.44,65.47 53.92,81.57 39.1,76.7 30.72,73.8 26.18,65.19 28.69,57.09 33.31,42.41 54.62,46.59 51.45,61.2 Z"
     fill="#002447"
     id="path8" />
  <path
     d="m94.605 34h18.789c0.88672 0 1.6055 0.71875 1.6055 1.6055v3.9609c0 0.89062-0.71875 1.6094-1.6055 1.6094h-18.789c-0.88672 0-1.6055-0.71875-1.6055-1.6094v-3.9609c0-0.88672 0.71875-1.6055 1.6055-1.6055z"
     fill="#9a9996"
     id="path9" />
  <path
     d="m14.605 34h18.789c0.88672 0 1.6055 0.71875 1.6055 1.6055v3.9609c0 0.89062-0.71875 1.6094-1.6055 1.6094h-18.789c-0.88672 0-1.6055-0.71875-1.6055-1.6094v-3.9609c0-0.88672 0.71875-1.6055 1.6055-1.6055z"
     fill="#9a9996"
     id="path10" />
  <path
     d="m15.84 28.5h96.324c4.0664 0 7.3359 3.2031 7.3359 7.1836v7.7969l-111 0.019531c0-2.6055 0.003906-5.2109 0.003906-7.8164 0-3.9805 3.2734-7.1836 7.3359-7.1836zm0 0"
     fill="#deddda"
     stroke="#5e5c64"
     stroke-linecap="round"
     stroke-linejoin="round"
     stroke-miterlimit="0"
     id="path11" />
  <path
     d="m95.012 32.5h17.977c0.83594 0 1.5117 0.67578 1.5117 1.5117v3.9766c0 0.83594-0.67578 1.5117-1.5117 1.5117h-17.977c-0.83594 0-1.5117-0.67578-1.5117-1.5117v-3.9766c0-0.83594 0.67578-1.5117 1.5117-1.5117zm0 0"
     fill="#62a0ea"
     stroke="#5e5c64"
     stroke-linecap="round"
     stroke-linejoin="round"
     stroke-miterlimit="0"
     id="path12" />
  <path
     d="m15.105 32.5h17.789c0.88672 0 1.6055 0.71875 1.6055 1.6055v3.7891c0 0.88672-0.71875 1.6055-1.6055 1.6055h-17.789c-0.88672 0-1.6055-0.71875-1.6055-1.6055v-3.7891c0-0.88672 0.71875-1.6055 1.6055-1.6055zm0 0"
     fill="#deddda"
     stroke="#5e5c64"
     stroke-linecap="round"
     stroke-linejoin="round"
     stroke-miterlimit="0"
     id="path13" />
  <g
     fill-rule="evenodd"
     id="g36">
    <path
       d="m15.504 126.93c0.15234 0.64844 0.74219 1.0117 1.3906 0.85937l81.918-19.23c0.64453-0.15234 0.80469-0.70312 0.65625-1.3516z"
       fill="#c0bfbc"
       id="path14" />
    <path
       d="m21.535 86.031 5.6797 24.18 32.543-7.6406zm-20.063-21.172 14.422 61.438 81.918-19.23z"
       fill="#57e389"
       fill-opacity=".9"
       stroke="#3d3846"
       stroke-width=".99897"
       id="path15" />
    <path
       transform="matrix(1.1703 -.27476 .27476 1.1703 65.301 -197.08)"
       d="m-98.5 249.5 0.001046 2.9243"
       fill="#26a269"
       stroke="#3d3846"
       stroke-linecap="round"
       stroke-width=".83105"
       id="path16" />
    <path
       transform="matrix(1.1703 -.27476 .27476 1.1703 65.301 -197.08)"
       d="m-95.493 249.5 0.001789 2.9211"
       fill="#26a269"
       stroke="#3d3846"
       stroke-linecap="round"
       stroke-width=".83105"
       id="path17" />
    <path
       transform="matrix(1.1703 -.27476 .27476 1.1703 65.301 -197.08)"
       d="m-92.485 249.5 0.001047 2.9243"
       fill="#26a269"
       stroke="#3d3846"
       stroke-linecap="round"
       stroke-width=".83105"
       id="path18" />
    <path
       transform="matrix(1.1703 -.27476 .27476 1.1703 65.301 -197.08)"
       d="m-89.478 249.5 0.001789 2.9211"
       fill="#26a269"
       stroke="#3d3846"
       stroke-linecap="round"
       stroke-width=".83105"
       id="path19" />
    <path
       transform="matrix(1.1703 -.27476 .27476 1.1703 65.301 -197.08)"
       d="m-86.47 249.5 0.001046 2.9243"
       fill="#26a269"
       stroke="#3d3846"
       stroke-linecap="round"
       stroke-width=".83105"
       id="path20" />
    <path
       transform="matrix(1.1703 -.27476 .27476 1.1703 65.301 -197.08)"
       d="m-83.462 249.5 0.001046 2.9243"
       fill="#26a269"
       stroke="#3d3846"
       stroke-linecap="round"
       stroke-width=".83105"
       id="path21" />
    <path
       transform="matrix(1.1703 -.27476 .27476 1.1703 65.301 -197.08)"
       d="m-80.452 249.5-0.002117 2.9235"
       fill="#26a269"
       stroke="#3d3846"
       stroke-linecap="round"
       stroke-width=".83105"
       id="path22" />
    <path
       transform="matrix(1.1703 -.27476 .27476 1.1703 65.301 -197.08)"
       d="m-77.444 249.5-0.002117 2.9235"
       fill="#26a269"
       stroke="#3d3846"
       stroke-linecap="round"
       stroke-width=".83105"
       id="path23" />
    <path
       transform="matrix(1.1703 -.27476 .27476 1.1703 65.301 -197.08)"
       d="m-74.437 249.5-0.001374 2.9204"
       fill="#26a269"
       stroke="#3d3846"
       stroke-linecap="round"
       stroke-width=".83105"
       id="path24" />
    <path
       transform="matrix(1.1703 -.27476 .27476 1.1703 65.301 -197.08)"
       d="m-71.429 249.5-0.002117 2.9235"
       fill="#26a269"
       stroke="#3d3846"
       stroke-linecap="round"
       stroke-width=".83105"
       id="path25" />
    <path
       transform="matrix(1.1703 -.27476 .27476 1.1703 65.301 -197.08)"
       d="m-68.422 249.5-0.001375 2.9204"
       fill="#26a269"
       stroke="#3d3846"
       stroke-linecap="round"
       stroke-width=".83105"
       id="path26" />
    <path
       transform="matrix(1.1703 -.27476 .27476 1.1703 65.301 -197.08)"
       d="m-65.415 249.5 0.001046 2.9243"
       fill="#26a269"
       stroke="#3d3846"
       stroke-linecap="round"
       stroke-width=".83105"
       id="path27" />
    <path
       transform="matrix(1.1703 -.27476 .27476 1.1703 65.301 -197.08)"
       d="m-59.4 249.5 0.001047 2.9243"
       fill="#26a269"
       stroke="#3d3846"
       stroke-linecap="round"
       stroke-width=".83105"
       id="path28" />
    <path
       transform="matrix(1.1703 -.27476 .27476 1.1703 65.301 -197.08)"
       d="m-53.385 249.5 0.001046 2.9243"
       fill="#26a269"
       stroke="#3d3846"
       stroke-linecap="round"
       stroke-width=".83105"
       id="path29" />
    <path
       transform="matrix(1.1703 -.27476 .27476 1.1703 65.301 -197.08)"
       d="m-62.407 249.5 0.00179 2.9211"
       fill="#26a269"
       stroke="#3d3846"
       stroke-linecap="round"
       stroke-width=".83105"
       id="path30" />
    <path
       transform="matrix(1.1703 -.27476 .27476 1.1703 65.301 -197.08)"
       d="m-56.392 249.5 0.001046 2.9243"
       fill="#26a269"
       stroke="#3d3846"
       stroke-linecap="round"
       stroke-width=".83105"
       id="path31" />
    <path
       transform="matrix(1.1703 -.27476 .27476 1.1703 65.301 -197.08)"
       d="m-50.377 249.5 0.001047 2.9243"
       fill="#26a269"
       stroke="#3d3846"
       stroke-linecap="round"
       stroke-width=".83105"
       id="path32" />
    <path
       transform="matrix(1.1703 -.27476 .27476 1.1703 65.301 -197.08)"
       d="m-47.37 249.5 0.00179 2.9211"
       fill="#26a269"
       stroke="#3d3846"
       stroke-linecap="round"
       stroke-width=".83105"
       id="path33" />
    <path
       transform="matrix(1.1703 -.27476 .27476 1.1703 65.301 -197.08)"
       d="m-44.359 249.5-0.002117 2.9235"
       fill="#26a269"
       stroke="#3d3846"
       stroke-linecap="round"
       stroke-width=".83105"
       id="path34" />
    <path
       transform="matrix(1.1703 -.27476 .27476 1.1703 65.301 -197.08)"
       d="m-41.352 249.5-0.001375 2.9204"
       fill="#26a269"
       stroke="#3d3846"
       stroke-linecap="round"
       stroke-width=".83105"
       id="path35" />
    <path
       transform="matrix(1.1703 -.27476 .27476 1.1703 65.301 -197.08)"
       d="m-38.344 249.5-0.002117 2.9235"
       fill="#26a269"
       stroke="#3d3846"
       stroke-linecap="round"
       stroke-width=".83105"
       id="path36" />
  </g>
</svg>
